src/apps/symbolic/org.gnome.Settings-microphone-symbolic.svg

<svg width="16px" height="16px" version="1.1" viewBox="0 0 16 16" xmlns="http://www.w3.org/2000/svg">
 <path d="m8 0c-1.662 0-3 1.338-3 3v5c0 1.662 1.338 3 3 3s3-1.338 3-3v-5c0-1.662-1.338-3-3-3zm0 1c1.108 0 2 0.892 2 2v5c0 1.108-0.892 2-2 2s-2-0.892-2-2v-5c0-1.108 0.892-2 2-2zm-6 5v1.9355c0 3.1691 2.4073 5.7537 5.5 6.0371v2.0273h1v-2.0176c3.1544-0.22238 5.6289-2.8339 5.6289-6.0469v-1.9355h-1.1289v2c0 2.77-2.23 5-5 5s-5-2.23-5-5v-2h-1z" fill="#363636"/>
</svg>

<svg xmlns="http://www.w3.org/2000/svg" width="16" height="16">
    <path fill="#050505" fill-opacity=".7" d="M8 0C6.338 0 5 1.338 5 3v5c0 1.662 1.338 3 3 3s3-1.338 3-3V3c0-1.662-1.338-3-3-3zm0 1c1.108 0 2 .892 2 2v5c0 1.108-.892 2-2 2s-2-.892-2-2V3c0-1.108.892-2 2-2zM2 6v1.936a6.05 6.05 0 0 0 5.5 6.037V16h1v-2.018a6.049 6.049 0 0 0 5.629-6.047V6H13v2c0 2.77-2.23 5-5 5s-5-2.23-5-5V6H2z"/>
</svg>
